X:222
T:
R:polska
S:Ur en handskriven notbok, tillhörig kyrkoherden Joneson, Fardhem.
O:Gotland, Fardhem
M:3/4
L:1/16
K:Bb
Lb4 Lf4 Ld4|B2Bd cBAG F4|G2G^F G2ed cBAG|F2F=E F2dc BAGF|
EDED C2ec B2dB|FecA B3d B,4::Lf4 Lc4 LA4|F2FA GFED C4|
FAGB AcBd d2c2|cBAG G4 F4|F2 Lf4 d2 edcB|FGAB cdec d2c2|
F2 Lf4 d2 edcB|FGAB cedc B2A2|G2G^F G2ed cBAG|
F2F=E F2dc BAGF|EDED C2ec B2dB|FecA B2d2 [B,D]4:|

